images/50384199.svg

<?xml version="1.0" encoding="UTF-8"?>
<svg xmlns="http://www.w3.org/2000/svg" xmlns:xlink="http://www.w3.org/1999/xlink" width="300pt" height="300pt" viewBox="0 0 300 300" version="1.1">
<defs>
<g>
<symbol overflow="visible" id="glyph0-0">
<path style="stroke:none;" d="M 0.453125 1.59375 L 0.453125 -6.34375 L 4.953125 -6.34375 L 4.953125 1.59375 Z M 0.953125 1.09375 L 4.453125 1.09375 L 4.453125 -5.84375 L 0.953125 -5.84375 Z M 0.953125 1.09375 "/>
</symbol>
<symbol overflow="visible" id="glyph0-1">
<path style="stroke:none;" d="M 5.796875 -6.0625 L 5.796875 -5.125 C 5.492188 -5.394531 5.171875 -5.597656 4.828125 -5.734375 C 4.492188 -5.878906 4.140625 -5.953125 3.765625 -5.953125 C 3.015625 -5.953125 2.4375 -5.722656 2.03125 -5.265625 C 1.632812 -4.804688 1.4375 -4.144531 1.4375 -3.28125 C 1.4375 -2.414062 1.632812 -1.753906 2.03125 -1.296875 C 2.4375 -0.835938 3.015625 -0.609375 3.765625 -0.609375 C 4.140625 -0.609375 4.492188 -0.675781 4.828125 -0.8125 C 5.171875 -0.945312 5.492188 -1.15625 5.796875 -1.4375 L 5.796875 -0.5 C 5.484375 -0.289062 5.15625 -0.132812 4.8125 -0.03125 C 4.46875 0.0703125 4.097656 0.125 3.703125 0.125 C 2.710938 0.125 1.929688 -0.175781 1.359375 -0.78125 C 0.785156 -1.394531 0.5 -2.226562 0.5 -3.28125 C 0.5 -4.332031 0.785156 -5.160156 1.359375 -5.765625 C 1.929688 -6.378906 2.710938 -6.6875 3.703125 -6.6875 C 4.097656 -6.6875 4.46875 -6.632812 4.8125 -6.53125 C 5.164062 -6.425781 5.492188 -6.269531 5.796875 -6.0625 Z M 5.796875 -6.0625 "/>
</symbol>
<symbol overflow="visible" id="glyph0-2">
<path style="stroke:none;" d="M 0.84375 -6.84375 L 1.65625 -6.84375 L 1.65625 0 L 0.84375 0 Z M 0.84375 -6.84375 "/>
</symbol>
<symbol overflow="visible" id="glyph0-3">
<path style="stroke:none;" d="M 0.890625 -6.5625 L 2.078125 -6.5625 L 4.984375 -1.078125 L 4.984375 -6.5625 L 5.84375 -6.5625 L 5.84375 0 L 4.65625 0 L 1.75 -5.484375 L 1.75 0 L 0.890625 0 Z M 0.890625 -6.5625 "/>
</symbol>
<symbol overflow="visible" id="glyph0-4">
<path style="stroke:none;" d="M 0.890625 -6.5625 L 1.765625 -6.5625 L 1.765625 -3.875 L 5 -3.875 L 5 -6.5625 L 5.890625 -6.5625 L 5.890625 0 L 5 0 L 5 -3.125 L 1.765625 -3.125 L 1.765625 0 L 0.890625 0 Z M 0.890625 -6.5625 "/>
</symbol>
<symbol overflow="visible" id="glyph0-5">
<path style="stroke:none;" d="M 3.546875 -5.953125 C 2.898438 -5.953125 2.382812 -5.710938 2 -5.234375 C 1.625 -4.753906 1.4375 -4.101562 1.4375 -3.28125 C 1.4375 -2.445312 1.625 -1.789062 2 -1.3125 C 2.382812 -0.832031 2.898438 -0.59375 3.546875 -0.59375 C 4.191406 -0.59375 4.703125 -0.832031 5.078125 -1.3125 C 5.453125 -1.789062 5.640625 -2.445312 5.640625 -3.28125 C 5.640625 -4.101562 5.453125 -4.753906 5.078125 -5.234375 C 4.703125 -5.710938 4.191406 -5.953125 3.546875 -5.953125 Z M 3.546875 -6.6875 C 4.460938 -6.6875 5.195312 -6.375 5.75 -5.75 C 6.300781 -5.132812 6.578125 -4.3125 6.578125 -3.28125 C 6.578125 -2.238281 6.300781 -1.410156 5.75 -0.796875 C 5.195312 -0.179688 4.460938 0.125 3.546875 0.125 C 2.617188 0.125 1.878906 -0.179688 1.328125 -0.796875 C 0.773438 -1.410156 0.5 -2.238281 0.5 -3.28125 C 0.5 -4.3125 0.773438 -5.132812 1.328125 -5.75 C 1.878906 -6.375 2.617188 -6.6875 3.546875 -6.6875 Z M 3.546875 -6.6875 "/>
</symbol>
</g>
</defs>
<g id="surface9605">
<rect x="0" y="0" width="300" height="300" style="fill:rgb(100%,100%,100%);fill-opacity:1;stroke:none;"/>
<path style="fill:none;stroke-width:1.2;stroke-linecap:butt;stroke-linejoin:miter;stroke:rgb(0%,80%,0%);stroke-opacity:1;stroke-miterlimit:10;" d="M 35.835938 107.03125 L 48.25 106.242188 "/>
<path style="fill:none;stroke-width:1.2;stroke-linecap:butt;stroke-linejoin:miter;stroke:rgb(0%,0%,0%);stroke-opacity:1;stroke-miterlimit:10;" d="M 48.25 106.242188 L 60.664062 105.453125 "/>
<path style=" stroke:none;fill-rule:nonzero;fill:rgb(100%,100%,100%);fill-opacity:1;" d="M 25.835938 101.53125 L 35.835938 101.53125 L 35.835938 112.53125 L 25.835938 112.53125 Z M 25.835938 101.53125 "/>
<g style="fill:rgb(0%,80%,0%);fill-opacity:1;">
  <use xlink:href="#glyph0-1" x="25.835938" y="110.194336"/>
  <use xlink:href="#glyph0-2" x="32.349609" y="110.194336"/>
</g>
<path style="fill:none;stroke-width:1.2;stroke-linecap:butt;stroke-linejoin:miter;stroke:rgb(0%,0%,0%);stroke-opacity:1;stroke-miterlimit:10;" d="M 60.664062 105.453125 L 71.714844 83.164062 "/>
<path style="fill:none;stroke-width:1.2;stroke-linecap:butt;stroke-linejoin:miter;stroke:rgb(0%,0%,0%);stroke-opacity:1;stroke-miterlimit:10;" d="M 67.015625 105.824219 L 75.855469 87.992188 "/>
<path style="fill:none;stroke-width:1.2;stroke-linecap:butt;stroke-linejoin:miter;stroke:rgb(0%,0%,0%);stroke-opacity:1;stroke-miterlimit:10;" d="M 74.445312 126.167969 L 60.664062 105.453125 "/>
<path style="fill:none;stroke-width:1.2;stroke-linecap:butt;stroke-linejoin:miter;stroke:rgb(0%,0%,0%);stroke-opacity:1;stroke-miterlimit:10;" d="M 71.714844 83.164062 L 84.128906 82.375 "/>
<path style="fill:none;stroke-width:1.2;stroke-linecap:butt;stroke-linejoin:miter;stroke:rgb(0%,0%,100%);stroke-opacity:1;stroke-miterlimit:10;" d="M 84.128906 82.375 L 96.542969 81.585938 "/>
<path style="fill:none;stroke-width:1.2;stroke-linecap:butt;stroke-linejoin:miter;stroke:rgb(0%,0%,100%);stroke-opacity:1;stroke-miterlimit:10;" d="M 96.542969 81.585938 L 103.429688 91.945312 "/>
<path style="fill:none;stroke-width:1.2;stroke-linecap:butt;stroke-linejoin:miter;stroke:rgb(0%,0%,0%);stroke-opacity:1;stroke-miterlimit:10;" d="M 103.429688 91.945312 L 110.320312 102.300781 "/>
<path style="fill:none;stroke-width:1.2;stroke-linecap:butt;stroke-linejoin:miter;stroke:rgb(0%,0%,100%);stroke-opacity:1;stroke-miterlimit:10;" d="M 93.046875 86.902344 L 98.558594 95.1875 "/>
<path style="fill:none;stroke-width:1.2;stroke-linecap:butt;stroke-linejoin:miter;stroke:rgb(0%,0%,0%);stroke-opacity:1;stroke-miterlimit:10;" d="M 98.558594 95.1875 L 104.070312 103.472656 "/>
<path style=" stroke:none;fill-rule:nonzero;fill:rgb(100%,100%,100%);fill-opacity:1;" d="M 93.542969 76.085938 L 100.542969 76.085938 L 100.542969 87.085938 L 93.542969 87.085938 Z M 93.542969 76.085938 "/>
<g style="fill:rgb(0%,0%,100%);fill-opacity:1;">
  <use xlink:href="#glyph0-3" x="93.542969" y="84.749023"/>
</g>
<path style="fill:none;stroke-width:1.2;stroke-linecap:butt;stroke-linejoin:miter;stroke:rgb(0%,0%,0%);stroke-opacity:1;stroke-miterlimit:10;" d="M 110.320312 102.300781 L 104.796875 113.445312 "/>
<path style="fill:none;stroke-width:1.2;stroke-linecap:butt;stroke-linejoin:miter;stroke:rgb(0%,0%,100%);stroke-opacity:1;stroke-miterlimit:10;" d="M 104.796875 113.445312 L 99.273438 124.589844 "/>
<path style="fill:none;stroke-width:1.2;stroke-linecap:butt;stroke-linejoin:miter;stroke:rgb(0%,0%,0%);stroke-opacity:1;stroke-miterlimit:10;" d="M 110.320312 102.300781 L 122.734375 101.511719 "/>
<path style="fill:none;stroke-width:1.2;stroke-linecap:butt;stroke-linejoin:miter;stroke:rgb(0%,0%,100%);stroke-opacity:1;stroke-miterlimit:10;" d="M 122.734375 101.511719 L 135.148438 100.722656 "/>
<path style="fill:none;stroke-width:1.2;stroke-linecap:butt;stroke-linejoin:miter;stroke:rgb(0%,0%,100%);stroke-opacity:1;stroke-miterlimit:10;" d="M 99.273438 124.589844 L 86.859375 125.378906 "/>
<path style="fill:none;stroke-width:1.2;stroke-linecap:butt;stroke-linejoin:miter;stroke:rgb(0%,0%,0%);stroke-opacity:1;stroke-miterlimit:10;" d="M 86.859375 125.378906 L 74.445312 126.167969 "/>
<path style="fill:none;stroke-width:1.2;stroke-linecap:butt;stroke-linejoin:miter;stroke:rgb(0%,0%,100%);stroke-opacity:1;stroke-miterlimit:10;" d="M 96.417969 118.90625 L 86.488281 119.539062 "/>
<path style="fill:none;stroke-width:1.2;stroke-linecap:butt;stroke-linejoin:miter;stroke:rgb(0%,0%,0%);stroke-opacity:1;stroke-miterlimit:10;" d="M 86.488281 119.539062 L 76.554688 120.167969 "/>
<path style=" stroke:none;fill-rule:nonzero;fill:rgb(100%,100%,100%);fill-opacity:1;" d="M 96.273438 119.089844 L 103.273438 119.089844 L 103.273438 130.089844 L 96.273438 130.089844 Z M 96.273438 119.089844 "/>
<g style="fill:rgb(0%,0%,100%);fill-opacity:1;">
  <use xlink:href="#glyph0-3" x="96.273438" y="127.75293"/>
</g>
<path style="fill:none;stroke-width:1.2;stroke-linecap:butt;stroke-linejoin:miter;stroke:rgb(0%,0%,0%);stroke-opacity:1;stroke-miterlimit:10;" d="M 74.445312 126.167969 L 63.398438 148.457031 "/>
<path style="fill:none;stroke-width:1.2;stroke-linecap:butt;stroke-linejoin:miter;stroke:rgb(0%,0%,0%);stroke-opacity:1;stroke-miterlimit:10;" d="M 63.398438 148.457031 L 74.933594 170.496094 "/>
<path style="fill:none;stroke-width:1.2;stroke-linecap:butt;stroke-linejoin:miter;stroke:rgb(0%,0%,0%);stroke-opacity:1;stroke-miterlimit:10;" d="M 38.871094 152.621094 L 63.398438 148.457031 "/>
<path style="fill:none;stroke-width:1.2;stroke-linecap:butt;stroke-linejoin:miter;stroke:rgb(0%,0%,0%);stroke-opacity:1;stroke-miterlimit:10;" d="M 42.300781 157.976562 L 61.921875 154.644531 "/>
<path style="fill:none;stroke-width:1.2;stroke-linecap:butt;stroke-linejoin:miter;stroke:rgb(0%,0%,0%);stroke-opacity:1;stroke-miterlimit:10;" d="M 74.933594 170.496094 L 57.539062 188.28125 "/>
<path style="fill:none;stroke-width:1.2;stroke-linecap:butt;stroke-linejoin:miter;stroke:rgb(0%,0%,0%);stroke-opacity:1;stroke-miterlimit:10;" d="M 77.378906 176.367188 L 63.464844 190.597656 "/>
<path style="fill:none;stroke-width:1.2;stroke-linecap:butt;stroke-linejoin:miter;stroke:rgb(0%,0%,0%);stroke-opacity:1;stroke-miterlimit:10;" d="M 99.035156 176.671875 L 74.933594 170.496094 "/>
<path style="fill:none;stroke-width:1.2;stroke-linecap:butt;stroke-linejoin:miter;stroke:rgb(0%,0%,0%);stroke-opacity:1;stroke-miterlimit:10;" d="M 57.539062 188.28125 L 46.394531 182.757812 "/>
<path style="fill:none;stroke-width:1.2;stroke-linecap:butt;stroke-linejoin:miter;stroke:rgb(0%,0%,100%);stroke-opacity:1;stroke-miterlimit:10;" d="M 46.394531 182.757812 L 35.25 177.234375 "/>
<path style="fill:none;stroke-width:1.2;stroke-linecap:butt;stroke-linejoin:miter;stroke:rgb(0%,0%,0%);stroke-opacity:1;stroke-miterlimit:10;" d="M 57.539062 188.28125 L 64.246094 212.238281 "/>
<path style="fill:none;stroke-width:1.2;stroke-linecap:butt;stroke-linejoin:miter;stroke:rgb(0%,0%,100%);stroke-opacity:1;stroke-miterlimit:10;" d="M 35.25 177.234375 L 37.058594 164.925781 "/>
<path style="fill:none;stroke-width:1.2;stroke-linecap:butt;stroke-linejoin:miter;stroke:rgb(0%,0%,0%);stroke-opacity:1;stroke-miterlimit:10;" d="M 37.058594 164.925781 L 38.871094 152.621094 "/>
<path style=" stroke:none;fill-rule:nonzero;fill:rgb(100%,100%,100%);fill-opacity:1;" d="M 28.25 171.734375 L 42.25 171.734375 L 42.25 182.734375 L 28.25 182.734375 Z M 28.25 171.734375 "/>
<g style="fill:rgb(0%,0%,100%);fill-opacity:1;">
  <use xlink:href="#glyph0-3" x="28.25" y="180.397461"/>
  <use xlink:href="#glyph0-4" x="35.227539" y="180.397461"/>
</g>
<path style="fill:none;stroke-width:1.2;stroke-linecap:butt;stroke-linejoin:miter;stroke:rgb(0%,0%,0%);stroke-opacity:1;stroke-miterlimit:10;" d="M 64.246094 212.238281 L 88.34375 218.414062 "/>
<path style="fill:none;stroke-width:1.2;stroke-linecap:butt;stroke-linejoin:miter;stroke:rgb(0%,0%,0%);stroke-opacity:1;stroke-miterlimit:10;" d="M 68.105469 207.1875 L 87.386719 212.125 "/>
<path style="fill:none;stroke-width:1.2;stroke-linecap:butt;stroke-linejoin:miter;stroke:rgb(0%,0%,0%);stroke-opacity:1;stroke-miterlimit:10;" d="M 88.34375 218.414062 L 105.738281 200.628906 "/>
<path style="fill:none;stroke-width:1.2;stroke-linecap:butt;stroke-linejoin:miter;stroke:rgb(0%,0%,0%);stroke-opacity:1;stroke-miterlimit:10;" d="M 105.738281 200.628906 L 99.035156 176.671875 "/>
<path style="fill:none;stroke-width:1.2;stroke-linecap:butt;stroke-linejoin:miter;stroke:rgb(0%,0%,0%);stroke-opacity:1;stroke-miterlimit:10;" d="M 99.433594 199.808594 L 94.070312 180.644531 "/>
<path style="fill:none;stroke-width:1;stroke-linecap:butt;stroke-linejoin:miter;stroke:rgb(0%,0%,0%);stroke-opacity:1;stroke-miterlimit:10;" d="M 148.929688 121.4375 L 148.929688 121.4375 M 147.726562 118.6875 L 146.859375 119.265625 M 146.523438 115.941406 L 144.789062 117.09375 M 145.320312 113.191406 L 142.71875 114.925781 M 144.117188 110.441406 L 140.644531 112.753906 M 142.917969 107.695312 L 138.574219 110.582031 M 141.714844 104.945312 L 136.503906 108.410156 M 140.511719 102.195312 L 134.433594 106.238281 M 139.308594 99.449219 L 132.363281 104.070312 M 138.804688 98.292969 L 131.492188 103.15625 "/>
<path style=" stroke:none;fill-rule:nonzero;fill:rgb(100%,100%,100%);fill-opacity:1;" d="M 128.148438 95.222656 L 142.148438 95.222656 L 142.148438 106.222656 L 128.148438 106.222656 Z M 128.148438 95.222656 "/>
<g style="fill:rgb(0%,0%,100%);fill-opacity:1;">
  <use xlink:href="#glyph0-3" x="128.148438" y="103.885742"/>
  <use xlink:href="#glyph0-4" x="135.125977" y="103.885742"/>
</g>
<path style="fill:none;stroke-width:1.2;stroke-linecap:butt;stroke-linejoin:miter;stroke:rgb(0%,0%,0%);stroke-opacity:1;stroke-miterlimit:10;" d="M 148.929688 121.4375 L 137.878906 143.726562 "/>
<path style="fill:none;stroke-width:1.2;stroke-linecap:butt;stroke-linejoin:miter;stroke:rgb(0%,0%,0%);stroke-opacity:1;stroke-miterlimit:10;" d="M 173.757812 119.859375 L 148.929688 121.4375 "/>
<path style="fill:none;stroke-width:1.2;stroke-linecap:butt;stroke-linejoin:miter;stroke:rgb(0%,0%,0%);stroke-opacity:1;stroke-miterlimit:10;" d="M 137.878906 143.726562 L 151.660156 164.441406 "/>
<path style="fill:none;stroke-width:1.2;stroke-linecap:butt;stroke-linejoin:miter;stroke:rgb(0%,0%,0%);stroke-opacity:1;stroke-miterlimit:10;" d="M 151.660156 164.441406 L 176.488281 162.863281 "/>
<path style="fill:none;stroke-width:1.2;stroke-linecap:butt;stroke-linejoin:miter;stroke:rgb(0%,0%,0%);stroke-opacity:1;stroke-miterlimit:10;" d="M 176.488281 162.863281 L 182.011719 151.71875 "/>
<path style="fill:none;stroke-width:1.2;stroke-linecap:butt;stroke-linejoin:miter;stroke:rgb(0%,0%,100%);stroke-opacity:1;stroke-miterlimit:10;" d="M 182.011719 151.71875 L 187.535156 140.574219 "/>
<path style="fill:none;stroke-width:1.2;stroke-linecap:butt;stroke-linejoin:miter;stroke:rgb(0%,0%,100%);stroke-opacity:1;stroke-miterlimit:10;" d="M 187.535156 140.574219 L 180.644531 130.214844 "/>
<path style="fill:none;stroke-width:1.2;stroke-linecap:butt;stroke-linejoin:miter;stroke:rgb(0%,0%,0%);stroke-opacity:1;stroke-miterlimit:10;" d="M 180.644531 130.214844 L 173.757812 119.859375 "/>
<path style="fill:none;stroke-width:1.2;stroke-linecap:butt;stroke-linejoin:miter;stroke:rgb(0%,0%,100%);stroke-opacity:1;stroke-miterlimit:10;" d="M 187.535156 140.574219 L 199.949219 139.785156 "/>
<path style="fill:none;stroke-width:1.2;stroke-linecap:butt;stroke-linejoin:miter;stroke:rgb(0%,0%,0%);stroke-opacity:1;stroke-miterlimit:10;" d="M 199.949219 139.785156 L 212.363281 138.996094 "/>
<path style=" stroke:none;fill-rule:nonzero;fill:rgb(100%,100%,100%);fill-opacity:1;" d="M 184.535156 135.074219 L 191.535156 135.074219 L 191.535156 146.074219 L 184.535156 146.074219 Z M 184.535156 135.074219 "/>
<g style="fill:rgb(0%,0%,100%);fill-opacity:1;">
  <use xlink:href="#glyph0-3" x="184.535156" y="143.737305"/>
</g>
<path style="fill:none;stroke-width:1.2;stroke-linecap:butt;stroke-linejoin:miter;stroke:rgb(0%,0%,0%);stroke-opacity:1;stroke-miterlimit:10;" d="M 214.984375 140.296875 L 220.507812 129.152344 "/>
<path style="fill:none;stroke-width:1.2;stroke-linecap:butt;stroke-linejoin:miter;stroke:rgb(100%,0%,0%);stroke-opacity:1;stroke-miterlimit:10;" d="M 220.507812 129.152344 L 226.035156 118.007812 "/>
<path style="fill:none;stroke-width:1.2;stroke-linecap:butt;stroke-linejoin:miter;stroke:rgb(0%,0%,0%);stroke-opacity:1;stroke-miterlimit:10;" d="M 209.742188 137.695312 L 215.265625 126.550781 "/>
<path style="fill:none;stroke-width:1.2;stroke-linecap:butt;stroke-linejoin:miter;stroke:rgb(100%,0%,0%);stroke-opacity:1;stroke-miterlimit:10;" d="M 215.265625 126.550781 L 220.789062 115.40625 "/>
<path style="fill:none;stroke-width:1.2;stroke-linecap:butt;stroke-linejoin:miter;stroke:rgb(0%,0%,0%);stroke-opacity:1;stroke-miterlimit:10;" d="M 212.363281 138.996094 L 219.253906 149.351562 "/>
<path style="fill:none;stroke-width:1.2;stroke-linecap:butt;stroke-linejoin:miter;stroke:rgb(0%,0%,100%);stroke-opacity:1;stroke-miterlimit:10;" d="M 219.253906 149.351562 L 226.144531 159.710938 "/>
<path style=" stroke:none;fill-rule:nonzero;fill:rgb(100%,100%,100%);fill-opacity:1;" d="M 219.410156 111.207031 L 227.410156 111.207031 L 227.410156 122.207031 L 219.410156 122.207031 Z M 219.410156 111.207031 "/>
<g style="fill:rgb(100%,0%,0%);fill-opacity:1;">
  <use xlink:href="#glyph0-5" x="219.410156" y="119.870117"/>
</g>
<path style="fill:none;stroke-width:1.2;stroke-linecap:butt;stroke-linejoin:miter;stroke:rgb(0%,0%,100%);stroke-opacity:1;stroke-miterlimit:10;" d="M 226.144531 159.710938 L 238.554688 158.921875 "/>
<path style="fill:none;stroke-width:1.2;stroke-linecap:butt;stroke-linejoin:miter;stroke:rgb(0%,0%,0%);stroke-opacity:1;stroke-miterlimit:10;" d="M 238.554688 158.921875 L 250.96875 158.132812 "/>
<path style=" stroke:none;fill-rule:nonzero;fill:rgb(100%,100%,100%);fill-opacity:1;" d="M 219.144531 154.210938 L 233.144531 154.210938 L 233.144531 165.210938 L 219.144531 165.210938 Z M 219.144531 154.210938 "/>
<g style="fill:rgb(0%,0%,100%);fill-opacity:1;">
  <use xlink:href="#glyph0-3" x="219.144531" y="162.874023"/>
  <use xlink:href="#glyph0-4" x="226.12207" y="162.874023"/>
</g>
<path style="fill:none;stroke-width:1.2;stroke-linecap:butt;stroke-linejoin:miter;stroke:rgb(0%,0%,0%);stroke-opacity:1;stroke-miterlimit:10;" d="M 250.96875 158.132812 L 264.75 178.847656 "/>
</g>
</svg>

<svg xmlns="http://www.w3.org/2000/svg" xmlns:xlink="http://www.w3.org/1999/xlink" width="300pt" height="300pt" viewBox="0 0 300 300"><defs><symbol overflow="visible"><path d="M.453 1.594v-7.938h4.5v7.938zm.5-.5h3.5v-6.938h-3.5zm0 0"/></symbol><symbol overflow="visible" id="a"><path d="M5.797-6.063v.938c-.305-.27-.625-.473-.97-.61-.335-.144-.686-.218-1.06-.218-.75 0-1.33.23-1.736.687-.397.46-.592 1.12-.592 1.985 0 .866.195 1.526.593 1.983.408.46.986.688 1.736.688.375 0 .726-.066 1.062-.203.344-.132.664-.343.97-.625V-.5c-.314.21-.642.367-.986.47-.343.1-.714.155-1.11.155-.99 0-1.772-.3-2.343-.906C.784-1.396.5-2.228.5-3.28c0-1.052.285-1.88.86-2.486.57-.613 1.35-.92 2.343-.92.395-.002.766.053 1.11.155.35.104.68.26.984.468zm0 0"/></symbol><symbol overflow="visible" id="b"><path d="M.844-6.844h.812V0H.844zm0 0"/></symbol><symbol overflow="visible" id="c"><path d="M.89-6.563H2.08l2.906 5.485v-5.484h.86V0H4.656L1.75-5.484V0H.89zm0 0"/></symbol><symbol overflow="visible" id="d"><path d="M.89-6.563h.876v2.688H5v-2.688h.89V0H5v-3.125H1.766V0H.89zm0 0"/></symbol><symbol overflow="visible" id="e"><path d="M3.547-5.953c-.65 0-1.164.242-1.547.72-.375.48-.563 1.13-.563 1.952 0 .835.188 1.49.563 1.967.383.48.898.72 1.547.72.644 0 1.156-.24 1.53-.72.376-.476.564-1.132.564-1.968 0-.822-.187-1.474-.562-1.954-.375-.477-.887-.72-1.53-.72zm0-.734c.914 0 1.648.312 2.203.937.55.617.828 1.438.828 2.47 0 1.042-.277 1.87-.828 2.483-.555.617-1.29.922-2.203.922-.93 0-1.668-.305-2.22-.922C.774-1.41.5-2.237.5-3.28c0-1.033.273-1.853.828-2.47.55-.625 1.29-.938 2.22-.938zm0 0"/></symbol></defs><g><path fill="#fff" d="M0 0h300v300H0z"/><path d="M35.836 107.03l12.414-.788" stroke-width="1.2" stroke="#0c0" stroke-miterlimit="10" fill="none"/><path d="M48.25 106.242l12.414-.79" stroke-width="1.2" stroke="#000" stroke-miterlimit="10" fill="none"/><path d="M25.836 101.53h10v11h-10zm0 0" fill="#fff"/><g fill="#0c0"><use xlink:href="#a" x="25.836" y="110.194"/><use xlink:href="#b" x="32.35" y="110.194"/></g><path d="M60.664 105.453l11.05-22.29M67.016 105.824l8.84-17.832M74.445 126.168l-13.78-20.715M71.715 83.164l12.414-.79" stroke-width="1.2" stroke="#000" stroke-miterlimit="10" fill="none"/><path d="M84.13 82.375l12.413-.79M96.543 81.586l6.887 10.36" stroke-width="1.2" stroke="#00f" stroke-miterlimit="10" fill="none"/><path d="M103.43 91.945l6.89 10.356" stroke-width="1.2" stroke="#000" stroke-miterlimit="10" fill="none"/><path d="M93.047 86.902l5.512 8.285" stroke-width="1.2" stroke="#00f" stroke-miterlimit="10" fill="none"/><path d="M98.56 95.188l5.51 8.285" stroke-width="1.2" stroke="#000" stroke-miterlimit="10" fill="none"/><path d="M93.543 76.086h7v11h-7zm0 0" fill="#fff"/><use xlink:href="#c" x="93.543" y="84.749" fill="#00f"/><path d="M110.32 102.3l-5.523 11.145" stroke-width="1.2" stroke="#000" stroke-miterlimit="10" fill="none"/><path d="M104.797 113.445l-5.524 11.145" stroke-width="1.2" stroke="#00f" stroke-miterlimit="10" fill="none"/><path d="M110.32 102.3l12.414-.788" stroke-width="1.2" stroke="#000" stroke-miterlimit="10" fill="none"/><path d="M122.734 101.512l12.414-.79M99.273 124.59l-12.414.79" stroke-width="1.2" stroke="#00f" stroke-miterlimit="10" fill="none"/><path d="M86.86 125.38l-12.415.788" stroke-width="1.2" stroke="#000" stroke-miterlimit="10" fill="none"/><path d="M96.418 118.906l-9.93.633" stroke-width="1.2" stroke="#00f" stroke-miterlimit="10" fill="none"/><path d="M86.488 119.54l-9.933.628" stroke-width="1.2" stroke="#000" stroke-miterlimit="10" fill="none"/><path d="M96.273 119.09h7v11h-7zm0 0" fill="#fff"/><use xlink:href="#c" x="96.273" y="127.753" fill="#00f"/><path d="M74.445 126.168l-11.047 22.29M63.398 148.457l11.536 22.04M38.87 152.62l24.528-4.163M42.3 157.977l19.622-3.332M74.934 170.496L57.54 188.28M77.38 176.367l-13.915 14.23M99.035 176.672l-24.1-6.176M57.54 188.28l-11.145-5.522" stroke-width="1.2" stroke="#000" stroke-miterlimit="10" fill="none"/><path d="M46.395 182.758l-11.145-5.524" stroke-width="1.2" stroke="#00f" stroke-miterlimit="10" fill="none"/><path d="M57.54 188.28l6.706 23.958" stroke-width="1.2" stroke="#000" stroke-miterlimit="10" fill="none"/><path d="M35.25 177.234l1.81-12.308" stroke-width="1.2" stroke="#00f" stroke-miterlimit="10" fill="none"/><path d="M37.06 164.926l1.81-12.305" stroke-width="1.2" stroke="#000" stroke-miterlimit="10" fill="none"/><path d="M28.25 171.734h14v11h-14zm0 0" fill="#fff"/><g fill="#00f"><use xlink:href="#c" x="28.25" y="180.397"/><use xlink:href="#d" x="35.228" y="180.397"/></g><path d="M64.246 212.238l24.098 6.176M68.105 207.188l19.282 4.937M88.344 218.414l17.394-17.785M105.738 200.63l-6.703-23.958M99.434 199.81l-5.364-19.165" stroke-width="1.2" stroke="#000" stroke-miterlimit="10" fill="none"/><path d="M148.93 121.438m-1.203-2.75l-.868.578m-.337-3.325l-1.734 1.154m.53-3.903l-2.6 1.736m1.397-4.485l-3.472 2.314m2.273-5.06l-4.344 2.888m3.14-5.637l-5.21 3.465m4.008-6.215l-6.078 4.043m4.875-6.79l-6.947 4.622m6.442-5.777l-7.313 4.863" stroke="#000" stroke-miterlimit="10" fill="none"/><path d="M128.148 95.223h14v11h-14zm0 0" fill="#fff"/><g fill="#00f"><use xlink:href="#c" x="128.148" y="103.886"/><use xlink:href="#d" x="135.126" y="103.886"/></g><path d="M148.93 121.438l-11.05 22.29M173.758 119.86l-24.828 1.578M137.88 143.727l13.78 20.714M151.66 164.44l24.828-1.577M176.488 162.863l5.524-11.144" stroke-width="1.2" stroke="#000" stroke-miterlimit="10" fill="none"/><path d="M182.012 151.72l5.523-11.146M187.535 140.574l-6.89-10.36" stroke-width="1.2" stroke="#00f" stroke-miterlimit="10" fill="none"/><path d="M180.645 130.215l-6.887-10.356" stroke-width="1.2" stroke="#000" stroke-miterlimit="10" fill="none"/><path d="M187.535 140.574l12.414-.79" stroke-width="1.2" stroke="#00f" stroke-miterlimit="10" fill="none"/><path d="M199.95 139.785l12.413-.79" stroke-width="1.2" stroke="#000" stroke-miterlimit="10" fill="none"/><path d="M184.535 135.074h7v11h-7zm0 0" fill="#fff"/><use xlink:href="#c" x="184.535" y="143.737" fill="#00f"/><path d="M214.984 140.297l5.524-11.145" stroke-width="1.2" stroke="#000" stroke-miterlimit="10" fill="none"/><path d="M220.508 129.152l5.527-11.144" stroke-width="1.2" stroke="#f00" stroke-miterlimit="10" fill="none"/><path d="M209.742 137.695l5.524-11.144" stroke-width="1.2" stroke="#000" stroke-miterlimit="10" fill="none"/><path d="M215.266 126.55l5.523-11.144" stroke-width="1.2" stroke="#f00" stroke-miterlimit="10" fill="none"/><path d="M212.363 138.996l6.89 10.356" stroke-width="1.2" stroke="#000" stroke-miterlimit="10" fill="none"/><path d="M219.254 149.352l6.89 10.36" stroke-width="1.2" stroke="#00f" stroke-miterlimit="10" fill="none"/><path d="M219.41 111.207h8v11h-8zm0 0" fill="#fff"/><use xlink:href="#e" x="219.41" y="119.87" fill="#f00"/><path d="M226.145 159.71l12.41-.788" stroke-width="1.2" stroke="#00f" stroke-miterlimit="10" fill="none"/><path d="M238.555 158.922l12.414-.79" stroke-width="1.2" stroke="#000" stroke-miterlimit="10" fill="none"/><path d="M219.145 154.21h14v11h-14zm0 0" fill="#fff"/><g fill="#00f"><use xlink:href="#c" x="219.145" y="162.874"/><use xlink:href="#d" x="226.122" y="162.874"/></g><path d="M250.97 158.133l13.78 20.715" stroke-width="1.2" stroke="#000" stroke-miterlimit="10" fill="none"/></g></svg>
